X:54
T:Mr. Beveridge's Maggot
M:3/2
L:1/8
K:Cm clef=treble
P:A
|: "Cm"c'4 "G"(=b3=a/2b/2) "Cm"c'4 | "Cm"g2(fe) "G"(de)f2 "CM"e2c2 |\
"Eb"e'4 "Bb"(d'3c'/2d'/2) "Eb"e'4 | "Eb"b2(ag) "Bb"fga2 "Eb"g2e2 :|
P:B
[|
%Error : Guitar chord name not properly closed
ee'"g2 bb4 bb2 bb4 | "B7"f2 a4 a2 a4 | \"
"Cm"e2 g4 g2 g2(fe) 
%Error : Bar 6 is 21/8 not 3/2
| "G"(de)f2 "Cm"e2(dc) "G"=B2G2 |
"G"g2 d'4 d'2 d'2g2 | "Cm"e'2d'2 "G"c'2=b2 "Cm"c'4 |\
"Eb"gab2 efg2 "G"def2 | "Cm"e2c2 "G"c3=B "Cm"c4 |]

